X: 1303
T: Bourke's Dream (March)
B: australian traditional tunes wiki
M:4/4
L:1/8
R: March
Q: 1/4=100
K:D
V:1 
"D"A,2D2C2D2|"A7"E3CA,4|A3"D"AF2A2|"G"B3cd2cB|"D"A2A2F2E2|"Bm"D4C2D2|D2D2"B"G2F2|"A7"E6A,2|
"D"A,2D2C2D2|"A7"E3CA,4|A3"D"AF2A2|"G"B3cd2cB|"D"A2A2F2E2|"Bm"D4C2D2|"A7"E2G2E2C2|"D"D6(3ABc||
d4A2(3ABc|d4A2(3ABc|d3ef2d2|"G"B6c2|d4c4|B4"D"A4|"A7"G2AGF2GF|"A7"E2C2A,4|
"D"A,2D2C2D2|"A7"E3CA,4|"D"A3AF2A2|"G"B3cd2cB|"D"A2A2F2E2|"Bm"D4C2D2|"A7"F2G2E2C2|"D"D8-|D8||
% abcbook-tune_id 6342d53a7ae15639b7395309


% abcbook-boost 0
% abcbook-tablature 
% abcbook-transpose 
% abcbook-lastupdated 1665324358210
% abcbook-soundfonts 
% abcbook-repeats 1
% NFF Book 2008

